X:2183
T:All the forpart of the night
C:Traditional
O:Isle of Man
Z:Clague collection
B:Kiaull Vannin #183 
L:1/8
M:6/8  
K:D 
E2E G2A|B2B B2G|F2F E2D|E3-E3|E2E G2A|B2c d2d|cBA GFG|B3-B3|
e2B BAG|A2A d3|c2d B2E|E2E D3|E2E G2A|B2c d2c|BEE F2D|E3 E3||

